X: 17284
T: Hermit From Killarney, The
R: polka
M: 2/4
K: Adorian
|:AB/A/ GE|cd e/f/e/d/|cA GE|G2 EG|
AB/A/ GE|cd e/f/e/d/|cA BG|1 A2 AE:|2 A2 Ad||
ea a/b/a/g/|ed e/f/e/d/|^cd e(f|g2) fg|
ea a/b/a/g/|ed e/f/e/d/|cA BG|A2 Ad|
ea a/b/a/g/|ed e/f/e/d/|A/B/^c/d/ e(f|g2) fg|
af ge|fd e/f/e/d/|cA BG|A2 AE||

